X:1
T:Swinging on a Gate
R:Reel
M:C
%%printtempo 0
Q:180
K:G
e(f |"G"ge)dB G2 AB|"Am" (cA)BG A(GEG)|"G"DGBd g2g2|"D"fgag fde(f|
"G"ge)dB G2 AB|"Am"(cA)BG A(GEG)|cABG A(GEG)|"D"DGG(F "G"G2:|
|:e(f|\
"G"gf)e(a ba)g(f|"Em"gf)ed edcB|"Am"E2(AB cB)AG|EGAB "D"cde(f|
"G"gf)g(a ba)g(f|"Em"gf)ed e(dcB)|"C"cABG "Am"A(GEG)|"D"DGG(F"G"G2:|
